X:27
T:Lichtmann 27
C:J. C. Bach
M:C
L:1/8
Q:"Allegretto" 1/4=126
K:Bb
!mf!F2"_lightly"|B2cB (BA)GF|B2cB (BA)GF|B2c2d2e2|f6F2|
B2cB (BA)GF|B2cB (BA)GF|B2D2E2F2|B,6FG|
(AG)FG ABcd|e4d4|g4f4|f2e2d2F2|
B2 (cB) BAGF|B2 (cB) BAGF|B2D2E2F2|B,6|]

